X:1
T:Peeler and the Goat
M:4/4
L:1/4
K:C
 g g g e| f f g a| g g e c| d c3| c c e e| f a g2| g g e c| d c3| ^a a a a|\
 a ^a c'2| c' g e c| d g3| g g e c| f a g2| g g e c| d c3|
